material/.icons/material/horizontal-rotate-counterclockwise.svg

<svg xmlns="http://www.w3.org/2000/svg" viewBox="0 0 24 24"><path d="M12 10H9.09C9.43 6.55 10.6 4 12 4s2.57 2.55 2.91 6h1.99c-.46-4.56-2.48-8-4.9-8s-4.44 3.44-4.9 8H4l4 4 4-4m0 10c-1.27 0-2.36-2.11-2.79-5.08L8 16.12l-.7-.7C8 19.26 9.84 22 12 22c2.42 0 4.44-3.44 4.9-8h-1.99c-.34 3.45-1.51 6-2.91 6m10-9h-9l-2 2h11v-2M2 13h3l-2-2H2v2"/></svg>

<?xml version="1.0" encoding="UTF-8"?><!DOCTYPE svg PUBLIC "-//W3C//DTD SVG 1.1//EN" "http://www.w3.org/Graphics/SVG/1.1/DTD/svg11.dtd"><svg xmlns="http://www.w3.org/2000/svg" xmlns:xlink="http://www.w3.org/1999/xlink" version="1.1" id="mdi-horizontal-rotate-counterclockwise" width="24" height="24" viewBox="0 0 24 24"><path d="M12 10H9.09C9.43 6.55 10.6 4 12 4S14.57 6.55 14.91 10H16.9C16.44 5.44 14.42 2 12 2S7.56 5.44 7.1 10H4L8 14L12 10M12 20C10.73 20 9.64 17.89 9.21 14.92L8 16.12L7.3 15.42C8 19.26 9.84 22 12 22C14.42 22 16.44 18.56 16.9 14H14.91C14.57 17.45 13.4 20 12 20M22 11H13L11 13H22V11M2 13H5L3 11H2V13" /></svg>
